src/components/Icon/svg-icon/main/chart-bars-stacked.svg

<svg xmlns="http://www.w3.org/2000/svg" width="24" height="24"><path fill="#677078" d="M5 11.2h3V20H5v-8.8zM10.6 9h2.8v11h-2.8V9zm5.6 6H19v5h-2.8v-5zm0-7H19v6h-2.8V8zm-5.6-4h2.8v4h-2.8V4zM5 6.2h3V10H5V6.2z"/></svg>

<svg xmlns="http://www.w3.org/2000/svg" width="24" height="24" viewBox="0 0 24 24">
  <path fill="#677078" d="M5,11.2 L8,11.2 L8,20 L5,20 L5,11.2 Z M10.6,9 L13.4,9 L13.4,20 L10.6,20 L10.6,9 Z M16.2,15 L19,15 L19,20 L16.2,20 L16.2,15 Z M16.2,8 L19,8 L19,14 L16.2,14 L16.2,8 Z M10.6,4 L13.4,4 L13.4,8 L10.6,8 L10.6,4 Z M5,6.2 L8,6.2 L8,10 L5,10 L5,6.2 Z"/>
</svg>
